X: 40
T: Solace, A Mexican Serenade
C: Scott Joplin
%%abc-version 2.0
%%abcx-abcm2ps-target-version 5.9.1 (29 Sep 2008)
%%abc-creator hum2abc beta
%%abcx-conversion-date 2021/07/20 09:00:57
%%abc-copyright 2021 Craig Stuart Sapp
%%abc-edited-by Craig Stuart Sapp
%%abc-edited-by Craig Stuart Sapp
%%abcx-initial-encoding-date 2004/11/28
%%humdrum-veritas 2631873526
%%humdrum-veritas-data 14398633
%%removed 0's from note length
%%linebreak <none>
%%barnumbers 0
L: 1/16
M: 2/4
N: Derived from solace.krn
Q: "Very slow march time" 1/4=84
%%staves {1 2}
V: 1 clef=treble
V: 2 clef=bass
K: C
[V:1] c2>d2 e^de2 | 
[V:2] C2>D2 E^DE2 | 
[V:1] g2>a2 g2ab | 
[V:2] G2>A2 G2AB | 
[V:1] c'2>^d2 e^GA2 | 
[V:2] c2>^D2 E^G,A,2[K:clef=bass] | 
[V:1] A2G4c2 ]|:  
[V:2] F,2E,4E,_E, ]|:  
[V:1] B_BAG- G^GA^A | 
[V:2] D,2>G,2 [F2B,2]D,2 & D,6D,2 | 
[V:1] B[fd][g^c][fd]- [fd][gc][fd]B | 
[V:2] G,,2>G,2 [F2B,2]^D,2 & G,,6^D,2 | 
[V:1] cBAG- G^GAB | 
[V:2] E,2>G,2 [E2C2]G,2 & E,6G,2 | 
[V:1] c[ge][a^d][ge]- [ge][ad][ge]^c | 
[V:2] C,2>G,2 [E2C2]E,2 & C,6E,2 | 
[V:1] dfa[d'f]- [d'f]fed- | 
[V:2] F,2>A,2 [F2D2]A,2 & F,6A,2 | 
[V:1] d[_A2D2C2][GDB,]- [G2D2B,2]d2 | 
[V:2] F,2F,2 D,E,F,2 | 
[V:1] ceg[c'e]- [c'e]edc- | 
[V:2] E,2>G,2 [E2C2]G,2 & E,6G,2 | 
[V:1] c[^F2C2][GEC]- [G2E2C2]c2 | 
[V:2] ^D,2E,2 C,=D,E,_E, | 
[V:1] B_BAG- G^GA^A | 
[V:2] D,2>G,2 [F2B,2]D,2 & D,6D,2 | 
[V:1] B[fd][g^c][fd]- [fd][gc][fd]B | 
[V:2] G,,2>G,2 [F2B,2]^D,2 & G,,6^D,2 | 
[V:1] cBAG- G^GAB | 
[V:2] E,2>G,2 [E2C2]G,2 & E,6G,2 | 
[V:1] c[ge][a^d][ge]- [ge][ad][ge]_B | 
[V:2] C,2>G,2 [E2C2]E,2 & C,6E,2 | 
[V:1] A[a2f2][c'afc]- [c'afc][bB][c'c][d'd] | 
[V:2] F,2>A,2 [F2C2]A,2 & F,6A,2 | 
[V:1] !accent![^d'4c'4-a4-^d4][=d'2c'2a2=d2][_a2f2c2_A2] | 
[V:2] !accent!^F4=F4 | 
[V:1] [g4e4c4G4]-[gecG][d'2f2d2][e'ge] |[1 
[V:2] x4G,B,3 & z E,F,^F, G,2G,,2 | 
[V:1] [c'4e4c4]edc2 :|][2 
[V:2] [CC,]E,F,^F, G,=F,E,_E, :|]  
[V:1] [c'2e2c2]ef [g2e2]!accent![^g2e2] ]|: 
[V:2] [C2C,2] z2 z2 !accent![_B,2C,2] ]|:  
[V:1] x4gf2(3f/g/f/ & [a2f2]c/d/e/f/ A3_A | 
[V:2] F,,2>A,2 [F2C2]F,,2 & {/C,,D,,E,,}F,,6F,,2 | 
[V:1] [f_A][eG][eG][^dcF]- [d2c2F2][=d2B2=F2] | 
[V:2] C,2>A,2 [^D2C2]_A,2 & {/G,,A,,B,,}C,6_A,2 | 
[V:1] [^c4^A4E4][d2B2F2][e2B2E2] | 
[V:2] {/E,F,^F,} G,2>G,2 G,,2^G,,2 | 
[V:1] [e2=c2=A2E2]ef [g2e2]!accent![^g2e2] | 
[V:2] A,,2>A,2 [E2C2]!accent!_B,2 & A,,6C,2 | 
[V:1] x4gf2(3f/g/f/ & [a2f2]c/d/e/f/ A3_A | 
[V:2] F,,2>A,2 [F2C2]F,,2 & {/C,,D,,E,,}F,,6F,,2 | 
[V:1] [f_A][eG][eG][ecG]- [e2c2G2][e2_B2G2] | 
[V:2] C,2>G,2 [E2C2]^C,2 & {/G,,A,,B,,}C,6^C,2 | 
[V:1] edeB- BdA2 & [=B2G2]>G2- G2[^F2C2] | 
[V:2] D,2>G,2 [D2B,2]D,2 & D,6D,2 | 
[V:1] A2G4[g2d2B2] & [=F4B,4]x4 | 
[V:2] G,,2>G,2 [F2B,2]G,,2 & G,,6G,,2 | 
[V:1] gf2ex4 & [d4A4][fdF][geG][afA][^af^A] | 
[V:2] D,2>G,2 [D2A,2]D,2 & D,6D,2 | 
[V:1] [b6f6d6B6][=g2d2B2] | 
[V:2] ^G,,2>^G,2 [F2D2B,2][=G,2=G,,2] & ^G,,6=G,,2 | 
[V:1] gf2ex4 & [d4A4][fdF][geG][afA][^af^A] | 
[V:2] D,2>G,2 [D2A,2]D,2 & D,6D,2 | 
[V:1] [b6f6d6B6][b2f2d2B2] | 
[V:2] ^G,,2>^G,2 [F2D2B,2]G,,2 & ^G,,6G,,2 | 
[V:1] [c'4e4c4]-[c'ec][c'c][d'd][e'e] | 
[V:2] A,,2>A,2 [E2C2]A,,2 & A,,6A,,2 | 
[V:1] [e'2a2e2][d'4a4d4][f2d2c2F2] | 
[V:2] F,,2>A,2 [F2D2][_A,2_A,,2] & F,,6_A,,2 | 
[V:1] [f2d2B2F2][g2d2B2G2]- [gdBG]G[e2B2F2] |[1 
[V:2] G,2>G,2 [F2B,2][G,2G,,2] & [G,6G,,6]G,,2 | 
[V:1] [c2E2]ef [g2e2]!accent![^g2e2] :|][2 
[V:2] [G,2C,2] z2 z2 !accent![_B,2C,2] :|]  
[V:1] [c4E4]edc2 | 
[V:2] [G,C,]E,F,^F, G,=F,E,_E, | 
[V:1] B_BAG- G^GA^A | 
[V:2] D,2>G,2 [F2B,2]D,2 & D,6D,2 | 
[V:1] B[fd][g^c][fd]- [fd][gc][fd]B | 
[V:2] G,,2>G,2 [F2B,2]^D,2 & G,,6^D,2 | 
[V:1] cBAG- G^GAB | 
[V:2] E,2>G,2 [E2C2]G,2 & E,6G,2 | 
[V:1] c[ge][a^d][ge]- [ge][ad][ge]^c | 
[V:2] C,2>G,2 [E2C2]E,2 & C,6E,2 | 
[V:1] dfa[d'f]- [d'f]fed- | 
[V:2] F,2>A,2 [F2D2]A,2 & F,6A,2 | 
[V:1] d[_A2D2C2][GDB,]- [G2D2B,2]d2 | 
[V:2] F,2F,2 D,E,F,2 | 
[V:1] ceg[c'e]- [c'e]edc- | 
[V:2] E,2>G,2 [E2C2]G,2 & E,6G,2 | 
[V:1] c[^F2C2][GEC]- [G2E2C2]c2 | 
[V:2] ^D,2E,2 C,=D,E,_E, | 
[V:1] B_BAG- G^GA^A | 
[V:2] D,2>G,2 [F2B,2]D,2 & D,6D,2 | 
[V:1] B[fd][g^c][fd]- [fd][gc][fd]B | 
[V:2] G,,2>G,2 [F2B,2]^D,2 & G,,6^D,2 | 
[V:1] cBAG- G^GAB | 
[V:2] E,2>G,2 [E2C2]G,2 & E,6G,2 | 
[V:1] c[ge][a^d][ge]- [ge][ad][ge]_B | 
[V:2] C,2>G,2 [E2C2]E,2 & C,6E,2 | 
[V:1] A[a2f2][c'afc]- [c'afc][bB][c'c][d'd] | 
[V:2] F,2>A,2 [F2C2]A,2 & F,6A,2 | 
[V:1] !accent![^d'4c'4-a4-^d4][=d'2c'2a2=d2][_a2f2c2_A2] | 
[V:2] !accent!^F4=F4 | 
[V:1] [g4e4c4G4]-[gecG][d'2f2d2][e'ge] | 
[V:2] x4G,B,3 & z E,F,^F, G,2G,,2 | 
[V:1] [c'4e4c4]-[c'2e2c2][E2_B,2] ]|:  
[V:2] [C2C,2]G,C,- C,2C,2 ]|:  
[V:1]  [K:F] F4-[FC]A[f2d2A2] & A,B,=B,C-x4 | 
[V:2]  [K:F] F,G,^G,A,- A,F,D,C, | 
[V:1] x4BB[f2d2] & [f2d2G2]>[B2G2]- G2G2 | 
[V:2] B,,B,CD- D2B,,2 & B,,6B,,2 | 
[V:1] x4e^de2 & [f2d2G2]>[e2c2G2]- [c2G2][B2G2] | 
[V:2] C,G,A,B,- B,2C,,2 & C,6C,,2 | 
[V:1] [e2A2F2]>[A2F2]- [A2F2]!fermata![E2B,2] | 
[V:2] F,,^G,A,C- C2!fermata!C,2 & F,,6!fermata!C,2 | 
[V:1] F4-FAcd & A,B,=B,C- C2A2 | 
[V:2] F,G,^G,A,- A,2F,2 | 
[V:1] e4-e^de2 & z c=BA- A2[c2A2E2] | 
[V:2] z EDC-C4 & E,4-E,A,E,C, | 
[V:1] e4-e^de2 & z =BA^G- G2[G2E2] | 
[V:2] z DC=B,- B,2B,2 & E,,4-E,,2E,2 | 
[V:1] [e4A4E4]-[e2A2E2]!fermata![E2_B,2] | 
[V:2] C4-C2!fermata!C,2 & A,2E,A,,- A,,2!fermata!C,2 | 
[V:1] F4-[FC]A[f2d2A2] & A,B,=B,C-x4 | 
[V:2] F,G,^G,A,- A,F,D,C, | 
[V:1] x4BB[f2d2] & [f2d2G2]>[B2G2]- G2G2 | 
[V:2] B,,B,CD- D2B,,2 & B,,6B,,2 | 
[V:1] x4e^de2 & [f2d2G2]>[e2-c2G2-] [c2G2][B2G2] | 
[V:2] C,G,A,B,- B,2C,,2 & C,6C,,2 | 
[V:1] [e2A2F2]>[A2F2]- [A2F2][A2F2] | 
[V:2] F,,^G,A,C- C2_E,2 & F,,6_E,2 | 
[V:1] [B2F2]>[B2F2]- BcB2 & x4F2F2 | 
[V:2] D,F,B,D- D2_D2 | 
[V:1] [AF][A2F2][^GF]- [G2F2][d2G2F2] | 
[V:2] CC2=B,- B,2B,2 | 
[V:1] dc2B- [B2E2D2][A2E2C2] & [A2F2]>[E2D2]-x4 |[1 
[V:2] C2>C,2-C,4 | 
[V:1] [F6A,6]!fermata![E2B,2] :|][2 
[V:2] F,2>C,2F,,2 !fermata!C,2 :|]  
[V:1] [F4A,4]-[F2A,2]!fermata!df ]|: 
[V:2] F,2>C,2F,,2 !fermata!_A,,2 ]|:  
[V:1] [bf][be][b^d][be]- [be][b2d2][be] | 
[V:2] G,,2>G,2 [E2C2B,2]C,,2 & G,,6C,,2 | 
[V:1] [bf][be][b^d][be]- [be][b2d2][be] | 
[V:2] G,,2>G,2 [E2C2B,2]C,,2 & G,,6C,,2 | 
[V:1] [ae][ad][a^c][ad]-[a4d4]- | 
[V:2] F,,2>A,2 [F2C2]C,,2 & F,,6C,,2 | 
[V:1] [a4d4]-[ad][d2A2][cA] | 
[V:2] F,,_A,=A,D-D4 & F,,6^F,,2 | 
[V:1] [cA][BG][A^F][BG] [BG][A2F2][BG] | 
[V:2] G,,2>G,2 [E2C2B,2]C,,2 & G,,6C,,2 | 
[V:1] [cA][BG][A^F][BG-] [BG][A2F2][BG] | 
[V:2] E,,2>G,2 [E2C2B,2]C,,2 & E,,6C,,2 | 
[V:1] [BG][AF][BG][cA]-[c4A4]- | 
[V:2] F,,2>A,2 [F2C2]C,,2 & F,,6C,,2 | 
[V:1] [c4A4]-[c2A2]!fermata!df | 
[V:2] F,,^G,A,C- C2!fermata!_A,,2 & F,,6!fermata!_A,,2 | 
[V:1] [bf][be][b^d][be]- [be][b2d2][be] | 
[V:2] G,,2>G,2 [E2C2B,2]C,,2 & G,,6C,,2 | 
[V:1] [bf][be][b^d][be]- [be][b2d2][be] | 
[V:2] G,,2>G,2 [E2C2B,2]C,,2 & G,,6C,,2 | 
[V:1] [ae][ad][a^c][ad]-[a4d4]- | 
[V:2] F,,2>A,2 [F2C2]C,,2 & F,,6C,,2 | 
[V:1] x4aaf_e & [a4d4]-dc3 | 
[V:2] F,,^G,A,D- D2F2 & F,,6A,2 | 
[V:1] dfdf- ff2d & B2>^G2- GG3 | 
[V:2] [F2B,2]>[F2=B,2]- [F2B,2][F2B,2] | 
[V:1] dfdc- cf2g & A2>A2- AB3 | 
[V:2] x4EF3 & [F2C2]>[F2_E2]- FD2_D | 
[V:1] x4cA2G & [ac][^g=B][ac][cA]- AE3 |[1 
[V:2] x4FC2_B, & [F2C2]>[F2C2]- CC,3 | 
[V:1] F6!fermata!df :|][2 
[V:2] A,6z2 & F,2>C,2F,,2 !fermata!_A,,2 :|]  
[V:1] F4!accent![f2c2A2F2] z2 |]  
[V:2] A,6z2 & F,2>C,2!accent!F,,2 z2 |]  


